icons/unity-panel/22x22/panel/printer-symbolic.svg

<svg version="1.0" viewBox="0 0 22 22" xmlns="http://www.w3.org/2000/svg">
 <path d="m6 3v4.025c-0.75 0.018-1.41 0.07-1.937 0.36a1.88 1.88 0 0 0-0.838 0.998c-0.165 0.439-0.225 0.96-0.225 1.617v3c0 0.658 0.06 1.179 0.225 1.617 0.164 0.439 0.461 0.79 0.838 0.998 0.282 0.156 0.599 0.234 0.937 0.287v-1.025a1.627 1.627 0 0 1-0.455-0.139c-0.183-0.1-0.287-0.212-0.385-0.472-0.097-0.26-0.16-0.674-0.16-1.266v-3c0-0.592 0.063-1.006 0.16-1.266 0.098-0.26 0.202-0.371 0.385-0.472 0.365-0.202 1.195-0.247 2.455-0.262h8c1.259 0.015 2.087 0.06 2.453 0.262 0.184 0.101 0.29 0.213 0.387 0.472 0.097 0.26 0.16 0.674 0.16 1.266v3c0 0.592-0.063 1.006-0.16 1.266-0.098 0.26-0.203 0.371-0.387 0.472-0.107 0.06-0.267 0.104-0.453 0.139v1.025c0.338-0.053 0.655-0.13 0.938-0.287a1.88 1.88 0 0 0 0.837-0.998c0.165-0.438 0.225-0.96 0.225-1.617v-3c0-0.658-0.06-1.178-0.225-1.617a1.88 1.88 0 0 0-0.837-0.998c-0.527-0.29-1.188-0.342-1.938-0.36v-4.025zm1 1h8v3h-8zm9.5 5a0.5 0.5 0 0 0-0.5 0.5 0.5 0.5 0 0 0 0.5 0.5 0.5 0.5 0 0 0 0.5-0.5 0.5 0.5 0 0 0-0.5-0.5zm-10.5 4v6h10v-6h-1v5h-8v-5zm2 1v1h6v-1zm0 2v1h6v-1z" fill="#fff" font-family="sans-serif" font-weight="400" overflow="visible" style="font-feature-settings:normal;font-variant-alternates:normal;font-variant-caps:normal;font-variant-ligatures:normal;font-variant-numeric:normal;font-variant-position:normal;isolation:auto;mix-blend-mode:normal;shape-padding:0;text-decoration-color:#000000;text-decoration-line:none;text-decoration-style:solid;text-indent:0;text-orientation:mixed;text-transform:none" white-space="normal"/>
</svg>

<?xml version="1.0" encoding="UTF-8" standalone="no"?>
<svg
   version="1.0"
   viewBox="0 0 22 22"
   id="svg4"
   sodipodi:docname="printer-symbolic.svg"
   inkscape:version="1.1.1 (3bf5ae0d25, 2021-09-20)"
   xmlns:inkscape="http://www.inkscape.org/namespaces/inkscape"
   xmlns:sodipodi="http://sodipodi.sourceforge.net/DTD/sodipodi-0.dtd"
   xmlns="http://www.w3.org/2000/svg"
   xmlns:svg="http://www.w3.org/2000/svg">
  <defs
     id="defs8" />
  <sodipodi:namedview
     id="namedview6"
     pagecolor="#ffffff"
     bordercolor="#666666"
     borderopacity="1.0"
     inkscape:pageshadow="2"
     inkscape:pageopacity="0.0"
     inkscape:pagecheckerboard="0"
     showgrid="true"
     inkscape:zoom="24.181818"
     inkscape:cx="10.979323"
     inkscape:cy="11"
     inkscape:window-width="1852"
     inkscape:window-height="1043"
     inkscape:window-x="1434"
     inkscape:window-y="0"
     inkscape:window-maximized="1"
     inkscape:current-layer="svg4">
    <inkscape:grid
       type="xygrid"
       id="grid861" />
  </sodipodi:namedview>
  <path
     d="m 6.0000004,2.9999998 v 4.025 c -0.75,0.018 -1.4100004,0.07 -1.9370004,0.36 a 1.88,1.88 0 0 0 -0.838,0.998 c -0.165,0.439 -0.225,0.96 -0.225,1.617 V 13 c 0,0.658 0.06,1.179 0.225,1.617 0.164,0.439 0.461,0.79 0.838,0.998 0.282,0.156 0.599,0.234 0.937,0.287 V 14.877 A 1.627,1.627 0 0 1 4.545,14.738 C 4.362,14.638 4.258,14.526 4.16,14.266 4.063,14.006 4,13.592 4,13 V 9.9999998 c 0,-0.592 0.063,-1.006 0.16,-1.266 0.098,-0.26 0.202,-0.371 0.385,-0.472 0.365,-0.202 1.1950004,-0.247 2.4550004,-0.262 H 15 c 1.259,0.015 2.087,0.06 2.453,0.262 0.184,0.101 0.29,0.213 0.387,0.472 0.097,0.26 0.16,0.674 0.16,1.266 V 13 c 0,0.592 -0.063,1.006 -0.16,1.266 -0.098,0.26 -0.203,0.371 -0.387,0.472 -0.107,0.06 -0.267,0.104 -0.453,0.139 v 1.025 c 0.338,-0.053 0.655,-0.13 0.938,-0.287 a 1.88,1.88 0 0 0 0.837,-0.998 C 18.94,14.179 19,13.657 19,13 V 9.9999998 c 0,-0.658 -0.06,-1.178 -0.225,-1.617 a 1.88,1.88 0 0 0 -0.837,-0.998 c -0.527,-0.29 -1.188,-0.342 -1.938,-0.36 v -4.025 z m 1,1 H 15 v 3 H 7.0000004 Z m 9.4999996,5 a 0.5,0.5 0 0 0 -0.5,0.5 0.5,0.5 0 0 0 0.5,0.5 0.5,0.5 0 0 0 0.5,-0.5 0.5,0.5 0 0 0 -0.5,-0.5 z M 6.0000004,13 v 6 H 16 v -6 h -1 v 5 H 7.0000004 v -5 z m 2,1 v 1 H 14 v -1 z m 0,2 v 1 H 14 v -1 z"
     fill="#808080"
     font-family="sans-serif"
     font-weight="400"
     overflow="visible"
     style="font-variant-ligatures:normal;font-variant-position:normal;font-variant-caps:normal;font-variant-numeric:normal;font-variant-alternates:normal;font-feature-settings:normal;text-indent:0;text-decoration-line:none;text-decoration-style:solid;text-decoration-color:#000000;text-transform:none;text-orientation:mixed;shape-padding:0;isolation:auto;mix-blend-mode:normal;fill:#ffffff"
     white-space="normal"
     id="path2-3" />
</svg>
